Newaita/actions/scalable/page-simple.svg

<?xml version="1.0" encoding="UTF-8"?>
<svg xmlns="http://www.w3.org/2000/svg" xmlns:xlink="http://www.w3.org/1999/xlink" width="512pt" height="512pt" viewBox="0 0 512 512" version="1.1">
<g id="surface1">
<path style=" stroke:none;fill-rule:nonzero;fill:rgb(25.882354%,25.882354%,25.882354%);fill-opacity:1;" d="M 116.429688 25.167969 C 98.835938 25.167969 84.675781 39.332031 84.675781 56.921875 L 84.675781 459.125 C 84.675781 476.71875 98.835938 490.878906 116.429688 490.878906 L 391.621094 490.878906 C 409.210938 490.878906 423.375 476.71875 423.375 459.125 L 423.375 56.921875 C 423.375 39.332031 409.210938 25.167969 391.621094 25.167969 Z M 137.597656 56.921875 L 370.453125 56.921875 C 382.179688 56.921875 391.621094 66.363281 391.621094 78.089844 L 391.621094 437.957031 C 391.621094 449.6875 382.179688 459.125 370.453125 459.125 L 137.597656 459.125 C 125.867188 459.125 116.429688 449.6875 116.429688 437.957031 L 116.429688 78.089844 C 116.429688 66.363281 125.867188 56.921875 137.597656 56.921875 Z M 137.597656 56.921875 "/>
</g>
</svg>

<svg xmlns="http://www.w3.org/2000/svg" width="512pt" height="512pt" viewBox="0 0 512 512"><path d="M116.43 25.168c-17.594 0-31.754 14.164-31.754 31.754v402.203a31.682 31.682 0 0 0 31.754 31.754H391.62c17.59 0 31.754-14.16 31.754-31.754V56.922c0-17.59-14.164-31.754-31.754-31.754zm21.168 31.754h232.855a21.122 21.122 0 0 1 21.168 21.168v359.867a21.12 21.12 0 0 1-21.168 21.168H137.598a21.117 21.117 0 0 1-21.168-21.168V78.09a21.12 21.12 0 0 1 21.168-21.168zm0 0" fill="#424242"/></svg>
